icons/linear-new-textedit-office-program.svg

<svg xmlns="http://www.w3.org/2000/svg" width="32px" height="32px" viewBox="0 0 32 32" version="1.1">
    <title>linear-new-textedit-office-program</title>
    <g id="linear-new-textedit-office-program" stroke-width="1" fill-rule="evenodd">
        <path d="M8.29289322,8.29289322 C8.68341751,7.90236893 9.31658249,7.90236893 9.70710678,8.29289322 C10.0976311,8.68341751 10.0976311,9.31658249 9.70710678,9.70710678 L3.415,16 L9.70710678,22.2928932 C10.0675907,22.6533772 10.0953203,23.2206082 9.79029539,23.6128994 L9.70710678,23.7071068 C9.31658249,24.0976311 8.68341751,24.0976311 8.29289322,23.7071068 L1.29289322,16.7071068 C0.902368927,16.3165825 0.902368927,15.6834175 1.29289322,15.2928932 L8.29289322,8.29289322 Z M22.2928932,8.29289322 C22.6834175,7.90236893 23.3165825,7.90236893 23.7071068,8.29289322 L30.7071068,15.2928932 C31.0976311,15.6834175 31.0976311,16.3165825 30.7071068,16.7071068 L23.7071068,23.7071068 C23.3165825,24.0976311 22.6834175,24.0976311 22.2928932,23.7071068 C21.9023689,23.3165825 21.9023689,22.6834175 22.2928932,22.2928932 L28.585,16 L22.2928932,9.70710678 C21.9324093,9.34662282 21.9046797,8.77939176 22.2097046,8.38710056 L22.2928932,8.29289322 Z M18.0352362,4.73688259 C18.1805519,4.20405825 18.7302931,3.88992045 19.2631174,4.03523618 C19.7959418,4.18055191 20.1100796,4.73029306 19.9647638,5.26311741 L13.9647638,27.2631174 C13.8194481,27.7959418 13.2697069,28.1100796 12.7368826,27.9647638 C12.2040582,27.8194481 11.8899204,27.2697069 12.0352362,26.7368826 L18.0352362,4.73688259 Z" id="&#24418;&#29366;" fill-rule="nonzero" />
    </g>
</svg>

<svg xmlns="http://www.w3.org/2000/svg" viewBox="0 0 32 32"><path fill="currentColor" d="M8.293 8.293a1 1 0 0 1 1.414 1.414L3.415 16l6.292 6.293a1 1 0 0 1 .083 1.32l-.083.094a1 1 0 0 1-1.414 0l-7-7a1 1 0 0 1 0-1.414zm14 0a1 1 0 0 1 1.414 0l7 7a1 1 0 0 1 0 1.414l-7 7a1 1 0 0 1-1.414-1.414L28.585 16l-6.292-6.293a1 1 0 0 1-.083-1.32zm-4.258-3.556a1 1 0 1 1 1.93.526l-6 22a1 1 0 1 1-1.93-.526z"/></svg>
